Catalina-dark/actions/22/list-add-font.svg

<svg width="22" height="22" viewBox="3.801 3 14.4 16" xmlns="http://www.w3.org/2000/svg">
<defs>
<style id="current-color-scheme" type="text/css">.ColorScheme-Text {
        color:#f2f2f2
      }</style>
</defs>
<path class="ColorScheme-Text" d="m4.5996 3c-0.4432 0-0.79883 0.35758-0.79883 0.80078v14.398c0 0.4432 0.35563 0.80078 0.79883 0.80078h12.801c0.4432 0 0.79883-0.35758 0.79883-0.80078v-14.398c0-0.4432-0.35563-0.80078-0.79883-0.80078h-12.801zm6.2012 4.1992c0.96041 0 1.7572 0.2818 2.3906 0.84375 0.63347 0.56195 0.94922 1.3533 0.94922 2.375v4.5371h-1.3476v-1.043h-0.0625c-0.56194 0.8582-1.3838 1.2871-2.4668 1.2871-0.79693 0-1.4663-0.22968-2.0078-0.68945-0.53129-0.45978-0.79688-1.0662-0.79688-1.8223 0-0.81741 0.31771-1.4562 0.95117-1.916 0.63347-0.46995 1.414-0.70507 2.3438-0.70507 0.82759 0 1.5078 0.1525 2.0391 0.45898v-0.21484c0-0.55172-0.19033-0.99142-0.56836-1.3184-0.37804-0.33718-0.84281-0.50391-1.3945-0.50391-0.40869 0-0.78198 0.0969-1.1191 0.29102-0.32695 0.19412-0.55123 0.45969-0.67383 0.79687l-1.2871-0.55273c0.17369-0.44954 0.51649-0.86218 1.0273-1.2402 0.51086-0.38824 1.1856-0.58398 2.0234-0.58398zm0.19922 4.0312c-0.68455 0-1.2014 0.14901-1.5488 0.44531s-0.52148 0.64254-0.52148 1.041c0 0.36782 0.15983 0.66046 0.47656 0.875 0.31673 0.21458 0.6792 0.32031 1.0879 0.32031 0.58237 0 1.1081-0.21345 1.5781-0.64258 0.48021-0.43935 0.72071-0.95623 0.72071-1.5488-0.39847-0.32694-0.99604-0.49023-1.793-0.49023z" fill="currentColor"/>
</svg>

<svg xmlns="http://www.w3.org/2000/svg" viewBox="0 0 22 22">
  <defs id="defs3051">
    <style type="text/css" id="current-color-scheme">
      .ColorScheme-Text {
        color:#f2f2f2
      }
      </style>
  </defs>
 <path 
     style="fill:currentColor;fill-opacity:1;stroke:none"      
	 class="ColorScheme-Text"
        d="M 4.59961,3 C 4.15641,3 3.80078,3.35758 3.80078,3.80078 l 0,14.39844 C 3.80078,18.64242 4.15641,19 4.59961,19 l 12.80078,0 c 0.4432,0 0.79883,-0.35758 0.79883,-0.80078 l 0,-14.39844 C 18.19922,3.35758 17.84359,3 17.40039,3 L 4.59961,3 Z m 6.20117,4.19922 c 0.96041,0 1.75716,0.2818 2.39062,0.84375 0.63347,0.56195 0.94922,1.35328 0.94922,2.375 l 0,4.53711 -1.34765,0 0,-1.04297 -0.0625,0 c -0.56194,0.8582 -1.38379,1.28711 -2.4668,1.28711 -0.79693,0 -1.4663,-0.22968 -2.00781,-0.68945 -0.53129,-0.45978 -0.79688,-1.06624 -0.79688,-1.82227 0,-0.81741 0.31771,-1.45624 0.95117,-1.91602 0.63347,-0.46995 1.414,-0.70507 2.34375,-0.70507 0.82759,0 1.50778,0.1525 2.03907,0.45898 l 0,-0.21484 c 0,-0.55172 -0.19033,-0.99142 -0.56836,-1.31836 C 11.84657,8.65501 11.3818,8.48828 10.83008,8.48828 10.42139,8.48828 10.0481,8.58518 9.71094,8.7793 9.38399,8.97342 9.15971,9.23899 9.03711,9.57617 L 7.75,9.02344 C 7.92369,8.5739 8.26649,8.16126 8.77734,7.7832 9.2882,7.39496 9.96298,7.19922 10.80078,7.19922 Z M 11,11.23047 c -0.68455,0 -1.20145,0.14901 -1.54883,0.44531 -0.34738,0.2963 -0.52148,0.64254 -0.52148,1.04102 0,0.36782 0.15983,0.66046 0.47656,0.875 0.31673,0.21458 0.6792,0.32031 1.08789,0.32031 0.58237,0 1.10814,-0.21345 1.57812,-0.64258 0.48021,-0.43935 0.72071,-0.95623 0.72071,-1.54883 C 12.3945,11.39376 11.79693,11.23047 11,11.23047 Z"
     />
</svg>
